workspaces/client/public/images/svg/services-fast-transfer.svg

<svg width="41" height="40" viewBox="0 0 41 40" fill="none" xmlns="http://www.w3.org/2000/svg">
<path d="M25.8668 10.9167H10.1335C9.66683 10.9167 9.2335 10.9334 8.8335 10.9501C4.8835 11.1834 3.8335 12.6334 3.8335 17.1334V18.1001C3.8335 19.0167 4.5835 19.7667 5.50016 19.7667H30.5002C31.4168 19.7667 32.1668 19.0167 32.1668 18.1001V17.1334C32.1668 12.1667 30.9002 10.9167 25.8668 10.9167Z" fill="white"/>
<path d="M5.50016 22.2666C4.5835 22.2666 3.8335 23.0166 3.8335 23.9333V28.7833C3.8335 33.7499 5.10016 34.9999 10.1335 34.9999H25.8668C30.8168 34.9999 32.1168 33.7999 32.1668 29.0499V23.9333C32.1668 23.0166 31.4168 22.2666 30.5002 22.2666H5.50016ZM12.1002 30.9333H9.25016C8.56683 30.9333 8.00016 30.3666 8.00016 29.6833C8.00016 28.9999 8.56683 28.4333 9.25016 28.4333H12.1168C12.8002 28.4333 13.3668 28.9999 13.3668 29.6833C13.3668 30.3666 12.8002 30.9333 12.1002 30.9333ZM21.4168 30.9333H15.6835C15.0002 30.9333 14.4335 30.3666 14.4335 29.6833C14.4335 28.9999 15.0002 28.4333 15.6835 28.4333H21.4168C22.1002 28.4333 22.6668 28.9999 22.6668 29.6833C22.6668 30.3666 22.1168 30.9333 21.4168 30.9333Z" fill="white"/>
<path d="M37.1667 22.2167V13.4833C37.1667 8.26667 34.1834 6 29.6834 6H14.8C13.5334 6 12.4 6.18333 11.4 6.56667C10.6167 6.85 9.91668 7.26667 9.35002 7.81667C9.05002 8.1 9.28335 8.56667 9.71668 8.56667H27.8333C31.5833 8.56667 34.6167 11.6 34.6167 15.35V27.3C34.6167 27.7167 35.0667 27.95 35.3667 27.65C36.5167 26.4333 37.1667 24.65 37.1667 22.2167Z" fill="white"/>
</svg>

<svg xmlns="http://www.w3.org/2000/svg" width="41" height="40" fill="none"><path fill="#fff" d="M25.867 10.917H10.133c-.466 0-.9.016-1.3.033-3.95.233-5 1.683-5 6.183v.967c0 .917.75 1.667 1.667 1.667h25c.917 0 1.667-.75 1.667-1.667v-.967c0-4.966-1.267-6.216-6.3-6.216M5.5 22.267c-.917 0-1.666.75-1.666 1.666v4.85C3.834 33.75 5.1 35 10.134 35h15.733c4.95 0 6.25-1.2 6.3-5.95v-5.117c0-.916-.75-1.666-1.667-1.666zm6.6 8.666H9.25A1.26 1.26 0 0 1 8 29.683c0-.683.567-1.25 1.25-1.25h2.867c.683 0 1.25.567 1.25 1.25 0 .684-.567 1.25-1.267 1.25m9.317 0h-5.734a1.26 1.26 0 0 1-1.25-1.25c0-.683.567-1.25 1.25-1.25h5.734c.683 0 1.25.567 1.25 1.25 0 .684-.55 1.25-1.25 1.25"/><path fill="#fff" d="M37.167 22.217v-8.734C37.167 8.267 34.183 6 29.683 6H14.8c-1.267 0-2.4.183-3.4.567-.783.283-1.483.7-2.05 1.25-.3.283-.067.75.367.75h18.116a6.78 6.78 0 0 1 6.784 6.783V27.3c0 .417.45.65.75.35 1.15-1.217 1.8-3 1.8-5.433"/></svg>
